icons/linear-ele-arrow-up-left.svg

<svg xmlns="http://www.w3.org/2000/svg" width="32px" height="32px" viewBox="0 0 32 32" version="1.1">
    <title>linear-ele-arrow-up-left</title>
    <g id="linear-ele-arrow-up-left" stroke-width="1" fill-rule="evenodd">
        <path d="M21.5,6 C22.0522847,6 22.5,6.44771525 22.5,7 C22.5,7.55228475 22.0522847,8 21.5,8 L9.415,8 L25.2071068,23.7928932 C25.5976311,24.1834175 25.5976311,24.8165825 25.2071068,25.2071068 C24.8165825,25.5976311 24.1834175,25.5976311 23.7928932,25.2071068 L8,9.415 L8,21.5 C8,22.0128358 7.61395981,22.4355072 7.11662113,22.4932723 L7,22.5 C6.44771525,22.5 6,22.0522847 6,21.5 L6,7 L6.00278786,6.92476146 L6.02024007,6.79927424 L6.04973809,6.68785748 L6.09367336,6.57677845 L6.14599545,6.47929125 L6.21292769,6.38297765 L6.29291093,6.29285919 C6.32828727,6.25749917 6.36567442,6.22531295 6.40469339,6.19633458 L6.5159379,6.12467117 L6.62866398,6.07122549 L6.73400703,6.03584514 L6.85153313,6.0110178 L6.90996805,6.00399798 L7,6 L21.5,6 Z" id="&#36335;&#24452;" fill-rule="nonzero" />
    </g>
</svg>

<svg xmlns="http://www.w3.org/2000/svg" viewBox="0 0 32 32"><path fill="currentColor" d="M21.5 6a1 1 0 0 1 0 2H9.415l15.792 15.793a1 1 0 0 1-1.414 1.414L8 9.415V21.5a1 1 0 0 1-.883.993L7 22.5a1 1 0 0 1-1-1V7l.003-.075.017-.126.03-.111.044-.111.052-.098.067-.096.08-.09a1.01 1.01 0 0 1 .112-.097l.11-.071.114-.054.105-.035.118-.025.058-.007L7 6z"/></svg>
